packages/foundations/assets/icons/functional/images/transportation/car_32_inverted.svg

<svg width="32" height="32" viewBox="0 0 32 32" fill="none" xmlns="http://www.w3.org/2000/svg">
<g clip-path="url(#clip0_2214_6696)">
<path fill-rule="evenodd" clip-rule="evenodd" d="M22.5078 5.67152C23.7494 5.76825 24.8515 6.4825 25.2244 7.65968L26.6341 13.4977L29.025 13.4986C29.5375 13.4986 29.932 13.8547 29.9857 14.3483L29.992 15.4646C29.992 15.9772 29.6341 16.4294 29.141 16.4914L27.8341 16.4973C27.8552 16.8486 27.8455 17.2486 27.8116 17.7347C27.789 18.0588 27.6609 19.4167 27.4273 21.8084C27.385 22.2457 27.2781 22.6385 27.1084 22.978L27.1078 25.2168C27.1078 25.6625 27.1084 26.4987 25.8258 26.4987H24.2897C22.9905 26.4987 23.0078 25.6625 23.0078 25.2168L23.0071 24.4437C20.6383 24.5729 18.3027 24.6377 16 24.6382C13.6974 24.6387 11.3947 24.5748 9.09206 24.4467L9.09241 25.2168C9.09241 25.6625 9.09206 26.4987 7.81046 26.4987H6.27435C4.99241 26.4987 4.99241 25.6625 4.99241 25.2168L4.99268 23.2C4.7923 22.8682 4.65565 22.4751 4.58814 22.0331C4.31574 19.2094 4.17953 17.7976 4.17953 17.7976C4.14197 17.2893 4.12955 16.8667 4.14988 16.4965L2.97506 16.4986C2.42206 16.4986 2.00806 16.0166 2.00806 15.4646V14.4646C2.00806 13.9116 2.42206 13.4986 2.97506 13.4986L5.38106 13.4977L6.86596 7.94563C7.16872 6.73457 8.01169 5.8725 9.45363 5.79233C11.6262 5.67152 13.8481 5.50232 16.0454 5.50132C18.1995 5.5005 20.3198 5.56347 22.5078 5.67152ZM12.6372 18.0059C12.2413 18.0537 11.9105 18.3339 11.7983 18.7166L11.5088 20.4504C11.486 20.912 11.8143 21.3878 12.3434 21.4851C12.8724 21.5824 13.3403 21.2211 13.4683 20.777L13.6048 19.9987H18.4098L18.5472 20.777C18.6859 21.2581 19.1663 21.5694 19.6722 21.4851C20.178 21.4008 20.5315 20.9505 20.5067 20.4504L20.2172 18.7166C20.105 18.3339 19.7742 18.0537 19.3783 18.0059H12.6372ZM6.49055 17.2487C5.98993 17.2567 5.56375 17.6389 5.51272 18.1492C5.46169 18.6595 5.80376 19.1185 6.29288 19.2254L9.02496 19.4986C9.52558 19.4907 9.95176 19.1085 10.0028 18.5982C10.0538 18.0879 9.71176 17.6289 9.22263 17.522L6.49055 17.2487ZM22.7929 17.522C22.3038 17.6289 21.9617 18.0879 22.0127 18.5982C22.0637 19.1085 22.4899 19.4907 22.9905 19.4986L25.7226 19.2254C26.2118 19.1185 26.5538 18.6595 26.5028 18.1492C26.4518 17.6389 26.0256 17.2567 25.525 17.2487L22.7929 17.522ZM9.63086 7.48686C9.14858 7.51112 8.71435 7.79287 8.55051 8.24261L7.13406 13.4977C10.0692 13.3739 13.0165 13.3119 15.9761 13.3119C18.9322 13.3119 21.9005 13.3739 24.8811 13.4977L23.6234 8.24261C23.5053 7.77005 23.1217 7.39672 22.6282 7.3778C20.4068 7.29266 18.2154 7.20285 16.009 7.20177C13.8829 7.20075 11.7983 7.3778 9.63086 7.48686Z" fill="#1A1C1F"/>
</g>
<defs>
<clipPath id="clip0_2214_6696">
<rect width="32" height="32" fill="white"/>
</clipPath>
</defs>
</svg>

<svg xmlns="http://www.w3.org/2000/svg" width="32" height="32" fill="none"><g clip-path="url(#a)"><path fill="#1A1C1F" fill-rule="evenodd" d="M22.508 5.672c1.241.096 2.344.81 2.716 1.988l1.41 5.838h2.391a.94.94 0 0 1 .96.85l.007 1.117c0 .512-.358.964-.851 1.026l-1.307.006c.021.352.012.752-.022 1.238q-.034.486-.385 4.073a3.3 3.3 0 0 1-.319 1.17v2.239c0 .446 0 1.282-1.282 1.282H24.29c-1.3 0-1.282-.836-1.282-1.282v-.773q-3.554.194-7.008.194t-6.908-.191v.77c0 .446 0 1.282-1.282 1.282H6.274c-1.282 0-1.282-.836-1.282-1.282V23.2a3.2 3.2 0 0 1-.404-1.167l-.408-4.235a10 10 0 0 1-.03-1.301l-1.175.002c-.553 0-.967-.482-.967-1.034v-1c0-.553.414-.966.967-.966l2.406-.001 1.485-5.552c.303-1.211 1.146-2.073 2.588-2.154 2.172-.12 4.394-.29 6.591-.29 2.154-.002 4.275.061 6.463.17m-9.87 12.334a1 1 0 0 0-.84.71l-.29 1.734c-.022.462.306.938.835 1.035.53.097.997-.264 1.125-.708l.137-.778h4.805l.137.778a1 1 0 0 0 1.96-.327l-.29-1.733a1 1 0 0 0-.839-.711zm-6.147-.757a1 1 0 0 0-.198 1.976l2.732.274a1 1 0 0 0 .198-1.977zm16.302.273a1 1 0 0 0 .198 1.977l2.732-.274a1 1 0 0 0-.198-1.976zM9.63 7.487c-.482.024-.917.306-1.08.756l-1.417 5.255q4.403-.186 8.842-.186 4.434 0 8.905.186l-1.258-5.255c-.118-.473-.501-.846-.995-.865-2.221-.085-4.413-.175-6.619-.176-2.126-.001-4.21.176-6.378.285" clip-rule="evenodd"/></g><defs><clipPath id="a"><path fill="#fff" d="M0 0h32v32H0z"/></clipPath></defs></svg>
